icons/code-of-conduct-16.svg

<svg xmlns="http://www.w3.org/2000/svg" width="16" height="16" viewBox="0 0 16 16"><path fill-rule="evenodd" d="M8.048 2.241c.964-.709 2.079-1.238 3.325-1.241a4.613 4.613 0 013.282 1.355c.41.408.757.86.996 1.428.238.568.348 1.206.347 1.968 0 2.193-1.505 4.254-3.081 5.862-1.496 1.526-3.213 2.796-4.249 3.563l-.22.163a.75.75 0 01-.895 0l-.221-.163c-1.036-.767-2.753-2.037-4.249-3.563C1.51 10.008.007 7.952.002 5.762a4.614 4.614 0 011.353-3.407C3.123.585 6.223.537 8.048 2.24zm-1.153.983c-.81.78-1.546 1.669-2.166 2.417-.184.222-.358.432-.52.623a.75.75 0 00.04 1.016c.35.35.697.697 1.043 1.047.866.875 2.292.914 3.185.032.264-.26.534-.528.802-.797.694-.694 1.8-.701 2.474-.03L12.92 8.7l.283.284c-.244.334-.515.666-.81.995l-1.384-1.28A.75.75 0 109.99 9.802l1.357 1.252c-.325.31-.656.606-.984.887l-1.48-1.366a.75.75 0 10-1.018 1.102L9.191 12.9c-.433.34-.838.643-1.191.905-1.04-.773-2.537-1.907-3.846-3.242C2.611 8.99 1.502 7.306 1.502 5.75a3.114 3.114 0 01.913-2.335c1.159-1.158 3.23-1.224 4.48-.191zm7.112 4.442c.313-.65.491-1.293.491-1.916v-.001c0-.614-.088-1.045-.23-1.385-.143-.339-.357-.633-.673-.949a3.113 3.113 0 00-2.218-.915c-1.092.003-2.165.627-3.226 1.602-.823.755-1.554 1.637-2.228 2.45l-.127.154.562.566a.756.756 0 001.066.02l.794-.79c1.258-1.258 3.312-1.31 4.594-.032.396.394.792.791 1.173 1.173l.022.023z"/></svg>

<svg xmlns="http://www.w3.org/2000/svg" width="16" height="16" viewBox="0 0 16 16">
  <defs/>
  <path d="M8.048,2.241 C9.012,1.532 10.127,1.003 11.373,1 C12.604,0.996 13.786,1.484 14.655,2.355 C15.065,2.763 15.412,3.215 15.651,3.783 C15.889,4.351 15.999,4.989 15.998,5.751 C15.998,7.944 14.493,10.005 12.917,11.613 C11.421,13.139 9.704,14.409 8.668,15.176 L8.448,15.339 C8.182,15.537 7.819,15.537 7.553,15.339 L7.332,15.176 C6.296,14.409 4.579,13.139 3.083,11.613 C1.51,10.008 0.007,7.952 0.002,5.762 C-0.037,4.488 0.453,3.255 1.355,2.355 C3.123,0.585 6.223,0.537 8.048,2.24 Z M6.895,3.224 C5.645,2.191 3.574,2.257 2.415,3.415 C1.797,4.031 1.466,4.878 1.502,5.75 C1.502,7.306 2.611,8.99 4.154,10.563 C5.463,11.898 6.96,13.032 8,13.805 C8.353,13.543 8.758,13.24 9.191,12.9 L7.865,11.677 C7.561,11.396 7.542,10.921 7.823,10.617 C8.104,10.313 8.579,10.294 8.883,10.575 L10.363,11.941 C10.691,11.66 11.022,11.364 11.347,11.054 L9.99,9.802 C9.685,9.521 9.667,9.046 9.948,8.741 C10.229,8.436 10.704,8.418 11.009,8.699 L12.393,9.979 C12.688,9.65 12.959,9.318 13.203,8.984 L12.92,8.7 L11.753,7.532 C11.079,6.861 9.973,6.868 9.279,7.562 C9.011,7.831 8.741,8.099 8.477,8.359 C7.584,9.241 6.158,9.202 5.292,8.327 C4.946,7.977 4.599,7.63 4.249,7.28 C3.973,7.003 3.956,6.561 4.209,6.264 C4.371,6.073 4.545,5.863 4.729,5.641 C5.349,4.893 6.085,4.004 6.895,3.224 Z M14.007,7.666 C14.32,7.016 14.498,6.373 14.498,5.75 L14.498,5.749 C14.498,5.135 14.41,4.704 14.268,4.364 C14.125,4.025 13.911,3.731 13.595,3.415 C13.008,2.826 12.209,2.496 11.377,2.5 C10.285,2.503 9.212,3.127 8.151,4.102 C7.328,4.857 6.597,5.739 5.923,6.552 L5.796,6.706 L6.358,7.272 C6.647,7.571 7.124,7.58 7.424,7.292 L8.218,6.502 C9.476,5.244 11.53,5.192 12.812,6.47 C13.208,6.864 13.604,7.261 13.985,7.643 Z"/>
</svg>
